;MML Compile Test　（コンパイラのテスト。）
;
;ファイル先頭は、命令を書いてはいけない。（仕様というバグ。）
;というのは、行頭コマンドは、「"改行"＋"コマンド名"」で認識しているため。
;そのかわり、
;#timebase	'数字(0〜256)'
;#part		'数字(1〜20)'
;という命令はつくっおいた。(非公開扱いにする。)
;これだと、ファイル先頭でも大丈夫です。
;まぁ、行頭は、曲名だとか書いておいたほうがいいでしょう。
;ファイル管理のために。
;曲データ中には埋め込みませんけど。(メモリが勿体無いから。。。)
;#includeというのは作らなかった。(←処理が大変だから。)
;↑てか、これが非公開扱いにする理由。作れとか言われそうだから・・・(T_T;
;作れないことは無いですけど、インクルードのとこのアルゴリズムを
;大幅に変更しないといけませんので、取りあえずはあきらめてください。
;
;注意
;	コメントも、非公開です。
;	引数(数値)の検索は、コメントのチェックをしていません。
;	（入れたんだけど、うまく動かない。）
;	たとえば、音色を２行にわたって書いた場合、
;	最初の１行にコメントで数字を書くと、
;	その数値を音色で採用してしまいます。
;	そのうち、デバックするとおもいます。多分・・・。


;IN	←インクルード命令

TI	title
FI	filename
PA	16
TB	192
FX	0

@1	 1, 8,14,15, 15,15,15,15, 15,15,15,15, 15,15,15,15
	14, 8, 1, 0,  0, 0, 0, 0,  0, 0, 0, 0,  0, 0, 0, 0


;	fl,ar,dr,dl,sr,rr
E 2	16,17,18,19,20,21
;	fl, ar,as,al, dr,ds,dl, sr,ss,sl, rr,rs,rl
Ex 1	32, 33,34,35, 36,37,38, 39,40,41, 42,43,44


C1	C128 v13 D0  @1 @F1 @S2,2 @R3
C3	C129 v10 D10 r8.
C1,3	o4 l4 p64 B8192 E0,1 F0 K0 V0 @1 Q8 U100 q3 u0 n0 k127
	t120 l4  c c4 c6. c8 c8. c+ c- c= c+.& c r ! "0 '127 
	L cdefgab > ((c0&)e0&)g1


